X:1
T:Title
%%score ( 1 2 3 ) { 4 | ( 5 6 ) }
L:1/8
M:3/4
K:Eb
V:1 treble nm="Grand Piano, Staff 1"
V:2 treble 
V:3 treble 
V:4 bass nm="Choir Pad, First Mode Melody, CMD"
V:5 bass 
V:6 bass 
V:1
 [A,F]2 [CF]2 [CF]2 | [C=E]4 [A,F]2 | [FA]4 [DG]2 | [EG]4 [EG]2 | G4 z2 | z2 =B4 | [EGc]6 | %7
w: By~Thomas~Tallis~(1505\-1585) * *|||||||
 [Gc]2 [Gc]2 [Gc]2 | [GB]4 [DB]2 | A4 z2 | [C=E]4 [CF]2 | [DG]4 [EG]2 | [CF]4 [C=E]2 | [A,CF]6 | %14
w: |||||||
 [FA]2 [FA]2 [FA]2 | [FA]4 [FA]2 | A4 z2 | [CEA]4 [CA]2 | e4 z2 | B4 z2 | [GB]6 | %21
w: |||||||
 [Ac]2 [Ac]2 [Ac]2 | [A_d]4 [Ac]2 | B4 z2 | [EG]4 [EB]2 | [EA]4 [EG]2 | [CF]4 [C=E]2 | [A,CF]6- | %28
w: |||||||
 [A,CF]2 z2 z2 |] %29
w: |
V:2
 x6 | x6 | x6 | x6 | D3 E [Fc]2 | c2 z2 G2 | x6 | x6 | x6 | E2 z G F2 | x6 | x6 | x6 | x6 | x6 | %15
 x6 | F2 z2 G2 | x6 | E3 F [Ge]2 | E2 z A F2 | x6 | x6 | x6 | F3- [FA] [_DA]2 | x6 | x6 | x6 | x6 | %28
 x6 |] %29
V:3
 x6 | x6 | x6 | x6 | x6 | G4 z2 | x6 | x6 | x6 | z2 C4 | x6 | x6 | x6 | x6 | x6 | x6 | z2 E4 | x6 | %18
 x6 | z2 F2 z2 | x6 | x6 | x6 | x6 | x6 | x6 | x6 | x6 | x6 |] %29
V:4
 F,2 A,2 A,2 | G,4 F,2 | C4 B,2 | C4 G,2 | B,4[K:treble] C2 | D4 D2 | C6 | E2 E2 E2 | %8
 D4[K:bass] B,2 | C2 A,4 | G,4 A,2 | B,4 G,2 | A,2 G,4 | F,6 | C2 C2 C2 | C4 C2 | _D2[K:bass] B,4 | %17
 A,4 A,2 | C4 B,2 | C4 z2 | E6 | E2 E2 E2 | F4 E2 | _D4 z2 | B,4 G,2 | C4 B,2 | A,2 G,4 | F,6- | %28
 F,2 z2 z2 |] %29
V:5
 z2 F,2 F,2 | C,4 z2 | F,4 G,2 | C,4 C,2 | G,4 A,2 | G,4 G,2 | C,6 | C,2 C,2 C,2 | G,4 G,2 | %9
 C,2 F,2 F,2 | C,4 F,2 | B,,4 E,2 | F,2 C,4 | z6 | F,2 F,2 F,2 | F,4 F,2 | _D,2 E,4 | A,,4 z2 | %18
 A,4 E,2 | G,2 z2 D2 | E,6 | A,2 A,2 A,2 | _D,4 A,2 | _D,2 z2 A,2 | E,4 E,2 | C,3 _D, E,2 | %26
 A,,2 C,4 | z6 | z6 |] %29
V:6
 x6 | x6 | x6 | x6 | x6 | x6 | x6 | x6 | x6 | x6 | x6 | x6 | x6 | x6 | x6 | x6 | x6 | x6 | x6 | %19
 z2 F,4 | x6 | x6 | x6 | z2 F,4 | x6 | x6 | x6 | x6 | x6 |] %29

